X: 10821
Q: "Slow"
M: 6/8
L: 1/8
K: F
f |\
(e/f/g)e f2c | d2e f2a | {a}gfg a2f | Te2f g2a |\
(e/f/g)e f2c | {Bc}d2B Acf | (cAF) (BGE) | F3 F2 ||
f |\
(e/f/g)e f2c | d2e f2a | {a}gfg a2f | e2f (gab) |\
afc def | {d}cBA TB>cd | (cA).F (BG).E | F3 F2 |]


